src/assets/svg/ic_help.svg

<svg xmlns="http://www.w3.org/2000/svg" width="16" height="16"><path d="M11.703 3.16a3.357 3.357 0 00-.812-1.183 3.553 3.553 0 00-1.205-.726A4.346 4.346 0 008.192 1c-.641 0-1.22.109-1.738.326s-.961.525-1.327.922c-.367.398-.647 1.125-.839 1.684C4.1 4.479 4.006 5 4.002 6h1.992C6 5 6.17 4.268 6.507 3.773c.343-.502.876-.878 1.597-.878.151 0 .326-.025.524.049.197.074.384.162.559.322.175.162.323.36.445.627.124.267.184.579.184.951 0 .311-.038.574-.113.797-.076.223-.181.423-.314.603s-.285.344-.454.492c-.169.15-.347.311-.533.485a5.162 5.162 0 00-.603.641 3.177 3.177 0 00-.428.754 4.157 4.157 0 00-.253.997A10.24 10.24 0 007.039 11h1.887c0-.447.113-1.136.113-1.136s.184-.58.323-.81c.14-.23.303-.438.489-.625.187-.186.39-.378.611-.576.187-.174.373-.352.559-.531.187-.18.353-.385.498-.614s.262-.503.35-.819c.087-.317.131-.693.131-1.127 0-.596-.099-1.129-.297-1.602zM7 13h2v2H7z" fill="#3d464d"/></svg>

<?xml version="1.0" encoding="iso-8859-1"?>
<!-- Generator: Adobe Illustrator 16.0.4, SVG Export Plug-In . SVG Version: 6.00 Build 0)  -->
<!DOCTYPE svg PUBLIC "-//W3C//DTD SVG 1.1//EN" "http://www.w3.org/Graphics/SVG/1.1/DTD/svg11.dtd">
<svg version="1.1" id="artwork" xmlns="http://www.w3.org/2000/svg" xmlns:xlink="http://www.w3.org/1999/xlink" x="0px" y="0px"
	 width="16px" height="16px" viewBox="0 0 16 16" style="enable-background:new 0 0 16 16;" xml:space="preserve">
<g>
	<path style="fill:#3D464D;" d="M11.703,3.16c-0.198-0.472-0.469-0.865-0.812-1.183c-0.344-0.316-0.745-0.559-1.205-0.726
		C9.226,1.084,8.728,1,8.192,1c-0.641,0-1.22,0.109-1.738,0.326S5.493,1.851,5.127,2.248C4.76,2.646,4.48,3.373,4.288,3.932
		C4.1,4.479,4.006,5,4.002,6h1.992C6,5,6.17,4.268,6.507,3.773C6.85,3.271,7.383,2.895,8.104,2.895c0.151,0,0.326-0.025,0.524,0.049
		c0.197,0.074,0.384,0.162,0.559,0.322c0.175,0.162,0.323,0.36,0.445,0.627C9.756,4.16,9.816,4.472,9.816,4.844
		c0,0.311-0.038,0.574-0.113,0.797C9.627,5.864,9.522,6.064,9.389,6.244S9.104,6.588,8.935,6.736
		C8.766,6.886,8.588,7.047,8.402,7.221C8.169,7.432,7.968,7.646,7.799,7.862C7.63,8.08,7.487,8.331,7.371,8.616
		C7.255,8.902,7.17,9.234,7.118,9.613C7.065,9.992,7.039,10.454,7.039,11h1.887c0-0.447,0.113-1.136,0.113-1.136
		s0.184-0.58,0.323-0.81c0.14-0.23,0.303-0.438,0.489-0.625c0.187-0.186,0.39-0.378,0.611-0.576
		c0.187-0.174,0.373-0.352,0.559-0.531c0.187-0.18,0.353-0.385,0.498-0.614s0.262-0.503,0.35-0.819C11.956,5.572,12,5.196,12,4.762
		C12,4.166,11.901,3.633,11.703,3.16z"/>
	<rect x="7" y="13" style="fill:#3D464D;" width="2" height="2"/>
</g>
</svg>
